X:1
T:10. THE FIRSTE PAVIAN.
T:I0. THE FIRSTE PAVIAN.
T:from My Ladye Nevells Booke of Virginal Music
T:William Byrd (1543-1623)
T:(with high probability no ode to a primates' ancestor)
T:II. THE GALLIARDE TO THE FIRSTE PAVIAN.
C:William Byrd (1543-1623)
%%score ( 1 2 ) { ( 3 4 8 ) | ( 5 6 7 ) }
L:1/8
Q:1/2=46
M:4/2
K:Bb
V:1 treble-8 nm="Virginal"
V:2 treble-8 
V:3 treble nm="Virginal"
V:4 treble 
V:8 treble 
V:5 bass 
V:6 bass 
V:7 bass 
V:1
 z16 | z12 M=B4 | z12 P=b2 z2 | z12 M=B4 | z8 Pc'4 z4 | z4 Pe'2 z2 z8 | z8 z2 P=b z z2 Pb2 | %7
 z4 P=e3/2 z/ z2 Pe8 | z16 | z8 z2 P=B z z4 | z16 | z8 z2 Mg3 z z2 | z16 | z12 Pd' z z2 | %14
 z2 Pd' z z4 z8 | z8 P=e8 | z16 | z8 Mb4 z4 | z16 | z12 PB4 | PA4 z4 z2 PA z z2 PA2 | %21
 z4 Pb4 z2 P^f z z4 | z2 Pc' z z4 z2 P^f z z4 | z16 | z4 Pg z Mg2 PG z z2 Pe z z2 | z8 Mb3 z z4 | %26
 P^f4 z4 z4 P^F4 | Me4 z4 z8 | z4 Pb4 z4 (3Pe2 z2 z2 | z4 (3Pb2 z2 z2 z2 P^f z z4 | MB4 z4 z8 | %31
 z16 | z8 Mg4 z4 | z2 P=B z z4 z8 | z2 P^f z M[=ef]4 z8 | z4 Md4 z8 | z2 P^f' z z4 z8 | %37
 z4 Ma2 z2 z2 P^f z z4 | M=b2 z2 M=e'2 z2 z2 Pb z z4 | z4 P=e'2 z2 z8 | Pf3 z z4 PB2 z2 z4 | %41
 z2 P=B z z3 PB z4 Mg4 | MA2 P^f z z4 z8 | z2 P=B, z z4 z4 MB2 z2 | Mb2 P^f' z z3 Pf' z8 | %45
 Mb2 P^F z z4 z2 P^f z z4 | M=b2 z2 M=e'2 z2 z8 | %47
 M=E4 z4 z4[Q:1/2=46] P=e4[Q:1/2=45]"^.6"[Q:1/2=45]"^.1"[Q:1/2=44]"^.1"[Q:1/2=42]"^.8"[Q:1/2=41][Q:1/2=38]"^.8" | %48
"_finis: the galliarde foloweth"[Q:1/2=46] z16 |][M:3/2][Q:1/2=63] z8 P=B4 | z8 P=b4 | z8 Pe'4 | %52
 Pd'8 z4 | Pf'4 z8 | Pf4 z8 | z12 | z12 | z8 P[=Bd']4 | z12 | Mc'2 z2 z8 | Md'2 z2 z8 | Pf'4 z8 | %62
 z8 Pd'2 z2 | z12 | z12 | Md'6 z2 Md'4 | Me'6 z2 Pe'4 | z4 P=b4 z4 | z4 P=e'4 z4 | z6 Pe'2 z4 | %70
 z12 | z4 PA2 z2 P^f4 | z12 | z12 | z12 | Pd'3 z z8 | z4 P=e'3 z z4 | z12 | z8 Pa4 | z8 P^f4 | %80
 z12 | z8 z2 Pa2 | z6 Pa4 z2 | z6 P=B2 z4 | z6 P=b2 z4 | z4 Pf'2 z2 Pe'2 z2 | Md'6 z2 Pf2 z2 | %87
 z12 | M=e4 z8 | z12 | z6 Pa4 M=b2 | z12 | z6 P=b2 z4 | z4 Pf'2 z2 Pe'2 z2 | Md'6 z2 z2 Pa2 | %95
 z6 P=b z[Q:1/2=63] z4[Q:1/2=63][Q:1/2=62]"^.9"[Q:1/2=62]"^.8"[Q:1/2=62]"^.7"[Q:1/2=62]"^.5"[Q:1/2=62]"^.3" | %96
[Q:1/2=62] z12[Q:1/2=60]"^.4"[Q:1/2=57]"^.8""_finis: mr. w. birde."[Q:1/2=54]"^.1"[Q:1/2=49]"^.2"[Q:1/2=43] |] %97
V:2
 x16 | x16 | x16 | x16 | x16 | x16 | x16 | x16 | x16 | x16 | x16 | x16 | x16 | x16 | x16 | x16 | %16
 x16 | x16 | x16 | x16 | x16 | x16 | x16 | x16 | x16 | x16 | x16 | x16 | x16 | x16 | x16 | x16 | %32
 x16 | x16 | x16 | x16 | x16 | x16 | x16 | x16 | x16 | x16 | x16 | x16 | x16 | x16 | x16 | x16 | %48
 x16 |][M:3/2] x12 | x12 | x12 | x12 | x12 | x12 | x12 | x12 | x12 | x12 | x12 | x12 | x12 | x12 | %63
 x12 | x12 | x12 | Pc4 z8 | x12 | x12 | x12 | x12 | x12 | x12 | x12 | x12 | x12 | x12 | x12 | x12 | %79
 x12 | x12 | x12 | x12 | x12 | x12 | x12 | x12 | x12 | x12 | x12 | x12 | x12 | x12 | x12 | x12 | %95
 x12 | x12 |] %97
V:3
 [EG]8 [Gd]4 [Gd]4 | G4 [Ge]8 [Gd-]4 | d2 c2 [Gc]8 !//!=B2 A2 | =B8 z4 d4 | g6 g2 !//!c4 f4- | %5
 f4 !//!e2 d2 e2 c2 d4- | d2 c2 c4- c2 !//!=BA c2 !//!B2 | c4 x4 [Gc]8 | G4 z G/F/ G/A/B/c/ d4 d4 | %9
 G4 e8 d4- | d2 c2 c4 z =B/A/ B/c/d/e/ f/e/d/c/ B/A/B/c/ | [G=B]8 z2 !//!G2- GA/B/ c/d/e/f/ | %12
 g3 =e/f/ g/f/e/d/ c/B/A/G/ FG/A/ B/c/d/e/ f4- | f2 _ed ecde defe !//!dced | %14
 ce!//!dc f/e/d/c/ =B/A/B/c/ B/A/G/A/ B/c/d/c/ A/B/c/A/ c/4B/4c/4B/4c/4B/4A/4B/4 | c8 [Gc]8 | %16
 [FBd]8 B4 c4 | d8 d8 | d8 c8 | B4 z2 d2 f4 d4 | [Fc]4 B4 G4 z2 c2 | d4 !//!B4 A4 d4- | %22
 d2 !//!cB c d2 c d4 A2 d2- | d/c/=B/A/ G/A/B/c/ d/e/d/c/ d/c/B/A/ B4 z G/F/ G/A/_B/c/ | d8 B4 c4 | %25
 d8 d4 G4 | !//!^F4 G4 A8 | B2 z A Bcde f4 d4 | c4 !//!B4 (3G3 F G2 z2 c2 | %29
 (3d3 c d2 (3!//!B2 G2 B2 A4 d4 | d4 c4 d8 | z =B/c/ d/c/B/A/ B/c/B/A/ Bc [DGB]8 | c4 c2 c2 e4 e4 | %33
 [Gd]8 c8 | G2 !//!^F=E !//!F4 G8 | G4 z2 d2 e2 c2 g4- | g2 !//!^f=e f4 g8 | d8"^(   )" z4 z2 A2 | %38
 !//!=B2 d2 !//!=e2 c2 g4 d2 g2- | g2 f2 !//!=e2 d2 [Gce]8 | %40
 c3 B A/G/F/G/ A/B/c/d/ e2- e/d/e/f/ e/d/c/B/ c/d/e/c/ | [Gd]8 c8 | G2 !//!^F=E F G2 F G8 | %43
 z4 z2 d2 e2 c2 g4- | g2 !//!^f=e f g2 !//!f g4 z2 G2 | !//!B2 G2 A4- z4 z2 A2 | %46
 z2 [Gd]2 !//!=e2 c2 g4 d2 g2- | g/f/=e/d/ c/=B/A/G/ A/B/c/d/ e/f/g/f/ ed/c/ B/A/G/F/ !//!=E4 | %48
 !fermata![=EGc]16 |][M:3/2] c4 e4 d4 | [Gc]8 !//!=B4 | c2 d/c/=B/c/ f4 !//!e4 | !//!d8 g4 | %53
 !//!f4 d4 e4 | d6 e2 d2 c2 | [Gc]6 F2 =B4 | c6 c6 | c3 d e3 f !//!d4 | c4 [Gc]4 =B4 | %59
 !//!c2 de fedf edce | !//!d2 A=B cdef g4 | !//!f4 d4 e4 | d2 GA Bcde d2 c2 | [Gc]8 [G=B]4 | %64
 [Gc]6 [Gc]6 | !//!d6 c2 !//!d4 | !//!e6 f2 !//!e4 | d4 !//!=B4 G4 | g4 !//!=e4 c4 | %69
 z2 f4 !//!_e2 d4 | c6 d2 e4- | e4 d6 c2 | =B6 B6 | d6 GA =Bc d2 | edef e2 c=Bcd e2 | %75
 !//!d3 c dc=BA Bcde | fgdf !//!=e3 d ecde | f6 _e2 d4 | c2 FG ABcd e4- | e4 d6 c2 | [DG=B]8 B4 | %81
 _B4 B2 B2 B2 !//!A2 | B4 c2 !//!A4 =B2 | c4 d4 e3 d/e/ | f2 d4 !//!=B2 G4 | %85
 g4 !//!f2 d2 !//!e2 c2 | !//!d6 e2 d4 | c6 =BA c/B/c/B/ c/B/A/B/ | [Gc]4 [Gc]2 [Gc]6 | %89
 _B4 B2 B2 B2 A2 | B4 c2 !//!A4 !//!=B2 | c4 d4 e3 d/e/ | f2 d4 !//!=B2 G4 | %93
 g4 !//!f2 d2 !//!e2 c2 | !//!d6 e2 d4 | c6 !//!=BA c/B/c/B/ c/B/A/B/ | c6 !fermata!c6 |] %97
V:4
 x8 D4 D4 | E4 x8 D4 | [EG]4 E4 D4 D4 | [DG]4 G4 [DG]8 | G8 z4 F4 | c4 c4 G4 [DG]4 | %6
 E4 [CF]4 [DG]4 z2 G2- | G2 F2 !//!=E>FD>F !//!E8 | _E4 x4 [DG]4 [DG]4 | E4 G8 [DG]4 | [EG]8 G8 | %11
 x16 | x16 | c8 x8 | x14 G2 | G>^F G/A/G/=F/ =E/D/C/=B,/ C/D/E/F/ !//!E8 | x8 G4 E4 | %17
 D4 z2 F2 !//!B4 G4 | [D^F]4 G4 [=FA]4 C4 | E4 D4 F8 | C4 D4 G4 E4 | D4 G6 !//!^F=E F G2 F | %22
 G4 z2 G4 !//!^F=E F G2 F | G8 [DG]4 x4 | [FB]3 A !//!GF !//!G2 G3 F !//!EDEC | %25
 F2 z D EFGA !//!B3 A [B,D]4 | D4 B,CDE =F4 C4 | !//!E4 x4 F4 [FB]4 | %28
 [FA]4 z2 F2 x4 (3!//!E2 C2 E2 | D4 G4 z2 !//!^F=E F G2 F | %30
 [DG]4 G4- G^F/G/ A/G/F/=E/ F/G/E/F/ (6:4:6G/F/G/F/E/F/ | G8 x8 | F4 F2 F2 !//!G4 G4 | %33
 D4 z2 D2 E2 C2 E2 D2 | C8 D4 _E4 | C4 !//!D4 G4 z2 G2 | B2 G2 A4 G4 z2 G2 | %37
 B2 G2 !//!A2 A2- AG!//!^F=E F G2 F | G2 G2 c2 c2- c2 !//!=BA B c2 B | c6 =BA x8 | %40
 !//!F3 x5 G2 x6 | D4 z2 D2 E2 C2 !//!G4- | x4 C4 D4 =E4 | C4 D4 G4 z2 G2 | !//!B2 G2 A4 G8 | %45
 x8 AG!//!^F=E F G2 F | G4 c2 c2- c2 cA =B c2 B | c2 x6 [Gc] x7 | x16 |][M:3/2] [EG]4 G4 G4 | %50
 z4 E4 G4 | x12 | x12 | x12 | !//!F4 D4 F4 | E4 D4 D4 | [=EG]6 [EG]6 | _E4 G4 G4 | G4 E3 F G4 | %59
 x12 | x12 | x8 G4 | [FA]2 x10 | E4 D4- D4 | =E6 E6 | G8 G4 | G8 G4 | G8 x4 | G4 G8 | B6 x2 B4 | %70
 A8 G4 | G4- G4 !//!^F4 | [DG]6 [DG]6 | G6 x6 | x12 | x12 | x12 | [Bd]6 x2 [FB]4 | %78
 [FA]2 x6 !//!A4 | G8 !//!^F4 | x8 [DG]4 | [EG]4 [EG]2 [DF]2 [EG]2 F2 | [EG]4 [EG]2 F4 G2 | %83
 [EG]4 [DG]4 G4 | F4 G4 G4 | x12 | z4 G4 !//!F2 D2 | E4 [DF]4 D4 | !//!=E4 E2 E6 | %89
 [_EG]4 [EG]2 [DF]2 [EG]2 F2 | [EG]4 [EG]2 F4 F2 | [EG]4 [DG]4 G4 | F4 G4 G4 | x12 | %94
 z2 G2 _B6 !//!A2 | G4 F4 D4 | [=EG]6 [EG]6 |] %97
V:5
 [C,G,C]8 G,4 G,4 | C4 G,2 C4 =B,A, !//!B,4 | [G,C]8 G,4 G,4 | D,4 G,4 =B,4 !//!B,4 | C8 C8 | %5
 C8 G,4 G,4- | G,4 C,4 G,8 | =E,3 F, G,2 A,2 G,3 C G,2 C2 | [C,G,C]8 G,6 G,2 | %9
 G,4 C4 z C!//!=B,A, B,4 | C4 z C/=B,/ C/D/E/F/ G,3 G, D,2 G,2 | G,4 [D,G,]4 D4 D4 | %12
 C8 C4 CD/[I:staff -1]=E/ F/G/A/B/ |[I:staff +1] C4 C4 G,8 | z2 G,2- G,2 ^F,2 G,4 G,4 | %15
 =E,2 F,2 G,2 A,2 G,3 C G,2 C2 | B,4 F,2 B,4 A,G, B,2 A,2 | B,6 A,2 G,2 A,2 B,4 | %18
 A,4 G,6 G,2 ^F,4 | G,4 B,4 D2 C2 !//!B,4 | !//!A,4 z2 B,4 !//!A,G, B,2 !//!A,2 | %21
 B,4 z2 G,2 D4 A,4 | B,4 G,4 [D,D]8 | z2 G,2 D,2 G,2 G,3 G, D,2 G,2 | B,4 B,3 A, !//!G,F, B,4 A,2 | %25
 B,6 A,2 G,2 F,2 x4 | A,2 z A, G,6 G,2 !//!^F,4 | G,4 [B,D]4 D3 x x4 | C4 B,4 B,4 A,4 | %29
 B,4 G,4 D4 A,4 | !//!B,4 G,4 [D,D]8 | z2 G,2 D,2 G,2 G,3 G, D,2 G,2 | C4 C2 C2 B,2 G,2 C4- | %33
 C2 !//!=B,A, B,4 C6 _B,2 | A,2 G,2 A,4 G,4 z2 C,2 | E,2 C,2 G,4 z2 A,2 B,2 G,2 | %36
 D4 A,4 z2 G,2 B,2 G,2 | D8 D4 D4 | D4 C4 [G,,G,]8 | =E,4 C,4 G,3 C G,2 C2 | %40
 C4 C2 C2 !//!B,2 G,2 C4- | C2 !//!=B,A, B, C2 !//!B, C6 B,2 | C4 A,4 G,8 | %43
 E,2 C,2 G,4 z2 A,2 !//!B,2 G,2 | D4 D4 z2 G,2 B,2 G,2 | D8 D4 D4 | D4 C4 [G,,G,]8 | %47
 !//!=E,4 C,4 C4 C=B,/A,/ G,/F,/E,/D,/ | !fermata![C,G,C]16 |][M:3/2] C4 C4 !//!=B,4 | C6 C2 D4 | %51
 C6 =B,2 C4 | D4 D4 C4- | C4 =B,4 C4 | A,4 [B,,F,B,]8 | G,6 D,2 G,4 | G,3 C G,2 z2 C2 G,2 | %57
 C4 C4 !//!=B,4 | C3 D C,4 D4 | C6 =B,2 C4 | [=B,D]8 C4 | D2 D,E, F,G,A,=B, C4 | A,4 z2 B,4 A,2 | %63
 G,2 E,F, G,A,B,C DEFD | C3 C, G,2 G,2 C2 G,2 | [=B,D]6 A,2 D4 | !//!C4 G,6 A,2 | %67
 =B,2 C2 D4 B,2 C2 | D2 =B,2 [C,G,C]8 | [F,B,]4 F,6 G,2 | A,2 B,2 C8 | C2 B,2 !//!A,2 G,2 A,4 | %72
 G,4 D,2 z2 G,2 D,2 | [G,=B,D]8 [B,D]4 | [C,G,C]8 C,4 | [G,=B,D]8 [D,G,]4- | [D,G,]4 C6 G,2 | %77
 B,2 A,G, F,E,D,C, B,,C,D,E, | F,G,A,B, C2 F,2 C2 C,D, | E,F,G,A, B,2 G,2 A,4 | %80
 G,2 A,,=B,, C,D,E,F, G,4 | z2 B,2 B,4 G,2 C2 | z2 B,2 C2 C4 D2 | z2 C4 !//!=B,2 C4 | %84
 A,4 [D,G,]4 G,2 D,2 | z2 C4 =B,2 C4 | [=B,D]4 z2 G,2 z2 G,2 | z2 G,2 A,4 G,4 | %88
 z2 C2 G,2 z2 C2 G,2 | z2 B,2 B,4 G,2 C2 | z2 B,2 C2 C4 D2 | z2 C4 =B,2 C4 | A,4 [D,G,]4 G,2 D,2 | %93
 z2 C4 =B,2 C4 | [=B,D]4 G,4 F,2 D,2 | E,2 C,2 D,4 G,4 | z2 C2 G,2 z2 C2 !fermata!G,2 |] %97
V:6
 x8 =B,,4 B,,4 | G,4 x12 | C,4 C,4 [G,,D,]8 | G,,6 G,,2 G,6 G,2 | z4 G,4 [F,_A,]6 [F,A,]2 | %5
 [C,G,]4 C,8 =B,,4 | C,4 A,,4 z4 D,4 | C,8 C,8 | x8 =B,,6 B,,2 | %9
 C,4 z C,/=B,,/ C,/D,/E,/F,/ G,6 G,2 | [C,G,]8 [G,,D,]8 | %11
 z2 G,,2- G,,A,,/=B,,/ C,/D,/E,/F,/ [G,=B,]6 [F,A,]2 | =E,4 E,4 [F,A,]8 | %13
 [C,G,]4 [C,-G,]4 C,4 =B,,4 | C,4 A,,4 G,,4 [G,,D,]4 | C,8 C,8 | [B,,F,]8 E,4 [C,E,]4 | %17
 [B,,F,]8 z4 z2 G,,2 | D,4 B,,4 A,,8 | G,,4 G,4 [D,A,]4 z2 B,,2 | F,4 D,4 [C,E,]8 | %21
 [B,,F,]8 z4 D,4 | G,4 E,4 A,2 G,2 A,4 | G,,4- G,,4 [G,,D,]8 | [B,,F,]8 D,4 [C,E,]4 | %25
 [B,,F,]8 z2 z F,, G,,A,,B,,C, | D,4 [B,,D,]4 [A,,C,]8 | G,,4 G,4 [D,A,]3 A,, B,,C,D,E, | %28
 F,4 [D,F,]4 [C,E,]8 | [B,,F,]8 D,4 z2 D,2 | (3G,3 F, G,2 (3E,2 C,2 E,2 A,2 G,2 A,4 | %31
 [G,,D,]8 [G,,D,]8 | [F,A,]4 [F,A,]2 [F,A,]2 E,4 C,4 | G,8 [C,G,]8 | z4 z2 A,,2 B,,2 G,,2 C,2 C,2 | %35
 C,2 =B,,A,, B,,4 C,4 E,4 | D,4 z2 D,2 E,2 C,2 G,2 G,2 | G,2 ^F,=E, F,4 G,4 [D,A,]4 | %38
 G,4 [C,G,]4 D,4 z2 D,2 | C,8 C,8 | [F,A,]4 [F,A,]2 [F,A,]2 E,4 [C,G,]4 | G,8 [C,G,]8 | %42
 !//!A,2 G,2 z2 A,,2 B,,2 G,,2 C,2 C,2 | C,2 !//!=B,,A,, B,, C,2 B,, C,4 E,4 | %44
 D,4 A,4 E,2 C,2 G,2 G,2- | G,2 !//!^F,=E, F, G,2 F, G,4 [D,A,]4 | G,4 [C,G,]4 D,4 z2 D,2 | %47
 C,8 [C,G,]8 | x16 |][M:3/2] G,4 G,4 G,4 | E,4 C,4 G,4 | [E,G,]4 [D,F,]4 C,4 | G,6 F,2 [E,G,]4 | %53
 A,4 G,4 [C,G,]4 | D,4 x8 | C,4 G,,6 G,,2 | C,6 C,6 | [C,G,]4 [C,G,]4 G,4 | [E,G,]4 x4 G,4 | %59
 [E,G,]4 [D,F,]4 [C,G,]4 | G,6 F,2 [E,G,]4 | [D,A,]2 x6 [C,G,]4 | D,4 [B,,F,]8 | C,2 x10 | x6 C,6 | %65
 G,6 x2 [G,=B,]4 | z2 C,4 D,2 E,2 F,2 | G,6 A,2 G,4 | G,4 x8 | B,,6 C,2 D,2 E,2 | F,8 C,4 | %71
 C,4 D,8 | z2 G,,4 G,,6 | x8 G,4 | x4 C2 G,4 C2 | x8 G,,4- | G,,4 [C,G,]8 | [B,,F,]2 x10 | x12 | %79
 x4 D,6 D,2 | [G,,D,]2 x6 z2 G,,2 | E,4 E,2 B,,2 E,2 F,2 | [E,G,]4 [C,G,]2 F,3 E, D,2 | %83
 C,4 G,4 [C,G,]4 | D,4 =B,,2 G,,4 G,,2 | C,4 D,4 [C,G,]4 | G,4 G,,4 _B,,4 | C,4 F,2 F,,2 [G,,D,]4 | %88
 C,6 C,6 | E,4 E,2 B,,2 E,2 F,2 | E,4 [C,G,]2 F,3 E, D,2 | C,4 G,4 [C,G,]4 | D,4 =B,,2 G,,4 G,,2 | %93
 [E,G,]4 D,4 [C,G,]4 | G,4 G,,4 B,,4 | C,4 F,,4 [G,,D,]4 | C,6 C,6 |] %97
V:7
 x16 | C,8 G,6 G,2 | x16 | x16 | =E,8 x8 | x16 | x8 G,,8 | x16 | x16 | x16 | x16 | x16 | %12
 G,4 G,4 x8 | x12 D,4 | E,4 C,4 D,2 C,2 x4 | x16 | x16 | x16 | x16 | x16 | x4 F,4 x8 | x16 | x16 | %23
 D,4- D,4 x8 | x16 | x16 | x16 | x16 | x16 | x16 | x16 | x16 | x16 | x16 | x16 | x16 | x16 | %37
 z4 z2 A,2 B,2 G,2 x4 | x16 | x16 | x16 | x16 | x14 C,2 | x16 | x4 z2 D,2 x8 | %45
 x4 z2 A,2 B,2 G,2 x4 | x16 | x16 | x16 |][M:3/2] C,6 C,2 x4 | G,8 x4 | x8 G,2 A,2 | =B,2 C2 x8 | %53
 D,8 x4 | x12 | x12 | x12 | x12 | x12 | x12 | x12 | x12 | x12 | x12 | x12 | x12 | x12 | x12 | x12 | %69
 x12 | x8 z2 C2- | x12 | x12 | x12 | x12 | x12 | x12 | x12 | x12 | x12 | x12 | x12 | x12 | G,4 x8 | %84
 x12 | E,4 x8 | x12 | x12 | G,4 x2 G,4 x2 | G,4 x8 | G,4 x8 | G,4 x8 | x12 | x12 | x12 | x12 | %96
 G,4 x2 G,4 x2 |] %97
V:8
 x16 | x16 | x16 | x16 | x16 | x16 | G4 x12 | x16 | x16 | x16 | x16 | x16 | x16 | x16 | x16 | x16 | %16
 x16 | x16 | x4 z2 D2 x8 | x4 G4 x8 | x4 z2 F2 x8 | x16 | x16 | x16 | x16 | x16 | x16 | x16 | x16 | %29
 x16 | x16 | x16 | x16 | x8 G4 G4- | x16 | x16 | x16 | x16 | x16 | x16 | x16 | x16 | x16 | G8 x8 | %44
 x16 | x16 | !//!=B2 x14 | x16 | x16 |][M:3/2] x12 | x12 | x12 | x12 | x12 | x12 | x12 | x12 | %57
 G4 x8 | x12 | x12 | x12 | x12 | x12 | x12 | x12 | x12 | x12 | x12 | x12 | d6 x6 | x12 | x12 | %72
 x12 | x12 | x12 | x12 | x12 | x12 | x12 | x12 | x12 | x12 | x12 | x12 | x12 | x12 | x12 | G4 x8 | %88
 x12 | x12 | x12 | x12 | x12 | x12 | x12 | x12 | x12 |] %97

